symbols/fr/REP_TVM_ETCS-left.svg

<?xml version="1.0" encoding="UTF-8" standalone="no"?>
<svg
   width="14.000001"
   height="29.128824"
   viewBox="0 0 14.000001 29.128824"
   version="1.1"
   id="svg143"
   sodipodi:docname="REP_TVM_ETCS-left.svg"
   inkscape:version="1.2.2 (b0a8486541, 2022-12-01)"
   xmlns:inkscape="http://www.inkscape.org/namespaces/inkscape"
   xmlns:sodipodi="http://sodipodi.sourceforge.net/DTD/sodipodi-0.dtd"
   xmlns="http://www.w3.org/2000/svg"
   xmlns:svg="http://www.w3.org/2000/svg">
  <defs
     id="defs147" />
  <sodipodi:namedview
     id="namedview145"
     pagecolor="#ffffff"
     bordercolor="#666666"
     borderopacity="1.0"
     inkscape:showpageshadow="2"
     inkscape:pageopacity="0.0"
     inkscape:pagecheckerboard="0"
     inkscape:deskcolor="#d1d1d1"
     showgrid="false"
     inkscape:zoom="38.535714"
     inkscape:cx="7.5773865"
     inkscape:cy="10.211307"
     inkscape:window-width="2560"
     inkscape:window-height="1368"
     inkscape:window-x="0"
     inkscape:window-y="0"
     inkscape:window-maximized="1"
     inkscape:current-layer="svg143" />
  <rect
     x="0"
     y="0"
     width="14.000001"
     height="14.000001"
     fill="#0140b2"
     fill-opacity="1"
     id="rect137"
     style="stroke-width:0.833333" />
  <path
     fill-rule="evenodd"
     fill="#ffffff"
     fill-opacity="1"
     d="M 13.51172,4.6640627 H 7.1132817 V 0.60156272 L 7.1525574e-7,7.0000007 7.1132817,13.398439 V 9.3359387 H 13.51172 Z m 0,0"
     id="path139" />
  <path
     fill-rule="evenodd"
     fill="#fafa17"
     fill-opacity="1"
     d="M 13.51172,5.3750007 H 6.3984387 v -3.179688 l -5.335938,4.804688 5.335938,4.8007813 V 8.6250007 H 13.51172 Z m 0,0"
     id="path141" />
  <rect
     x="0"
     y="15.128823"
     width="14.000001"
     height="14.000001"
     fill="#0140b2"
     fill-opacity="1"
     id="rect524"
     style="stroke-width:0.833333" />
  <path
     fill-rule="evenodd"
     fill="#ffffff"
     fill-opacity="1"
     d="m 13.51172,29.128824 v -14 L 7.1525574e-7,22.214762 Z m 0,0"
     id="path526" />
  <path
     fill-rule="evenodd"
     fill="#fafa17"
     fill-opacity="1"
     d="M 13.51172,28.16398 V 16.089762 L 1.9531257,22.218668 Z m 0,0"
     id="path528" />
</svg>

<?xml version="1.0" encoding="UTF-8"?>
<svg xmlns="http://www.w3.org/2000/svg" xmlns:xlink="http://www.w3.org/1999/xlink" width="14" height="29.128822" viewBox="0 0 14 29.128822">
<path fill-rule="nonzero" fill="rgb(0.392157%, 25.098039%, 69.803922%)" fill-opacity="1" d="M 0 0 L 14 0 L 14 14 L 0 14 Z M 0 0 "/>
<path fill-rule="evenodd" fill="rgb(100%, 100%, 100%)" fill-opacity="1" d="M 13.511719 4.664062 L 7.113281 4.664062 L 7.113281 0.601562 L 0 7 L 7.113281 13.398438 L 7.113281 9.335938 L 13.511719 9.335938 Z M 13.511719 4.664062 "/>
<path fill-rule="evenodd" fill="rgb(98.039216%, 98.039216%, 9.019608%)" fill-opacity="1" d="M 13.511719 5.375 L 6.398438 5.375 L 6.398438 2.195312 L 1.0625 7 L 6.398438 11.800781 L 6.398438 8.625 L 13.511719 8.625 Z M 13.511719 5.375 "/>
<path fill-rule="nonzero" fill="rgb(0.392157%, 25.098039%, 69.803922%)" fill-opacity="1" d="M 0 15.128906 L 14 15.128906 L 14 29.128906 L 0 29.128906 Z M 0 15.128906 "/>
<path fill-rule="evenodd" fill="rgb(100%, 100%, 100%)" fill-opacity="1" d="M 13.511719 29.128906 L 13.511719 15.128906 L 0 22.214844 Z M 13.511719 29.128906 "/>
<path fill-rule="evenodd" fill="rgb(98.039216%, 98.039216%, 9.019608%)" fill-opacity="1" d="M 13.511719 28.164062 L 13.511719 16.089844 L 1.953125 22.21875 Z M 13.511719 28.164062 "/>
</svg>
